X:1
T:Donna, tu sei si bella
T:Ruggiero Giovannelli 1560 - 1625
T:Donna, tu sei si bella
T:(C) Wim Looyestijn - 2018. May be freely copied for non-commercial use.
T:(C) Wim Looyestijn - 2018. May be freely copied for non-commercial use.
C:Ruggiero Giovannelli
C:1560 - 1625
Z:(C) Wim Looyestijn - 2018. May be freely copied for non-commercial use.
%%score [ 1 2 3 ]
L:1/8
Q:1/4=160
M:4/4
K:Bb
V:1 treble-8 nm="Primo tenore" snm="T1"
V:2 treble-8 nm="Secondo tenore" snm="T2"
V:3 bass nm="Basso" snm="B"
V:1
 d8 | c2 d2 B2 c2 | d4 d2 d2 | c3 c B3 B | A4 d4- | d2 cB A4 | G8 | z2 d2 d2 d2 | d2 d2 d4 | %9
w: 1. Don-|na, tu sei si|bel- la, che|pa- ri pro- prio un|sol, non|* ch'u- na stel-|la.|Ne' vi- di al|mon- do mai|
w: 2. Don-|na, nel mon- do|so- la, la|cui bel- lez- za|so- pra og-|* ni al- tra vo-|la,|pren- di ques-|ta pu- ra,|
 z2 f3 =e d2 | c4 z4 | z2 c3 B A2 | G4 z4 | d6 cB | A2 GG AG A2 | G4 d2 dd | c2 cB AG A2 | %17
w: si- mil' a|te,|si- mil' a|te.|Ba- cio la|ma- no di vo- stra mer-|cè, ba- cio la|ma- no di vo- stra mer-|
w: u- ni- ca|fé,|u- ni- ca|fé.|||||
 G4 d2 dd | c2 cB AG A2 | G8 |] %20
w: cè, ba- cio la|ma- no di vo- stra mer-|cè.|
w: |||
V:2
 B8 | A2 B2 G2 A2 | B4 B2 B2 | A3 A G3 G | F4 B4- | B2 AG ^F4 | G8 | z2 B2 B2 B2 | B2 B2 B2 d2- | %9
w: 1. Don-|na, tu sei si|bel- la, che|pa- ri pro- prio un|sol, non|* ch'u- na stel-|la.|Ne' vi- di al|mon- do mai si-|
w: 2. Don-|na, nel mon- do|so- la, la|cui bel- lez- za|so- pra og-|* ni al- tra vo-|la,|pren- di ques-|ta pu- ra, u-|
 dc B2 A4- | A4 z2 A2- | AG F2 =E4- | E4 z4 | z8 | z8 | z4 D2 DD | =E2 EE FE ^F2 | G4 D2 DD | %18
w: * mil' a te,|* si-|* mil' a te.||||Ba- cio la|ma- no di vo- stra mer-|cè, ba- cio la|
w: * ni- ca fé,|* u-|* ni- ca fé.|||||||
 =E2 EE ^FE F2 | G8 |] %20
w: ma- no di vo- stra mer-|cè.|
w: ||
V:3
 B,,8 | F,2 D,2 E,2 C,2 | B,,4 B,,2 B,,2 | F,3 F, G,3 G, | D,4 B,,4- | B,,2 C,C, D,4 | G,,8 | %7
w: 1. Don-|na, tu sei si|bel- la, che|pa- ri pro- prio un|sol, non|* ch'u- na stel-|la.|
w: 2. Don-|na, nel mon- do|so- la, la|cui bel- lez- za|so- pra og-|* ni al- tra vo-|la,|
 z2 G,2 G,2 G,2 | G,2 G,2 G,2 B,2- | B,A, G,2 F,4- | F,4 z2 F,2- | F,E, D,2 C,4- | C,4 z4 | z8 | %14
w: Ne' vi- di al|mon- do mai si-|* mil' a te,|* si-|* mil' a te.|||
w: pren- di ques-|ta pu- ra, u-|* ni- ca fé,|* u-|* ni- ca fé.|||
 z8 | z8 | z8 | z4 B,,2 B,,B,, | C,2 C,C, D,C, D,2 | G,,8 |] %20
w: |||Ba- cio la|ma- no di vo- stra mer-|cè.|
w: ||||||

